X: 1
T: Bricklayer's Hornpipe
O: RSCDS 5-__
B: RSCDS 5-__
R: hornpipe
Z: 2006 John Chambers <jc:trillian.mit.edu>
M: C
L: 1/8
K: F
c2 \
| "F"c=B cA FA cf | "C7"fe ge cd cB | "C7"cB dB "F"BA cA | "Bb"AG BG "C7"FE DC |
| "F"c=B cA FA cf | "C7"fe ge ce gb | "Bb"ba ag "C7"gf eg | "F"f2 a2 f2 :|
|: G2 \
| "C"G^F GE CE GB | "F"BA cA FA cf | "Bb"df cf df cf | "Bb"df ba "C7"gf ed |
| "F"c=B cA FA cf | "C7"fe ge ce gb | "Bb"ba ag "C7"gf eg | "F"f2 a2 f2 :|
%%center Book05/BricklayersHornpipe_F-JC.abc

%%sep 1 1 500
%%sep 1 1 500

